X:1
T:Braun, 66.46.66.4
T:Johann G. Braun, 1675
T:Braun, 66.46.66.4
T:Public Domain
C:Johann G. Braun, 1675
Z:Public Domain
%%score ( 1 2 ) ( 3 4 )
L:1/8
M:3/4
K:Eb
V:1 treble 
V:2 treble 
V:3 bass 
V:4 bass 
V:1
 [EG]2 [EG]2 [EG]2 | [DF]3 [DF] E2 | [EB]2 [FB]2 G2 | [Ac]3 [Ad] [Ge]2 | [CE]2 [CE]2 [DF]2 | %5
 [DG]6 | [Ee]2 [Ee]2 [Ge]2 | [Gd]3 [Gc] [G=B]2 | [Ec]2 [Ec]2 [Ec]2 | [EB]3 [EA] [EG]2 | %10
 [CA]2 [FA]2 [EA]2 | [DG]3 [DF] E2 | [CF]2 C2 [B,D]2 | [B,E]6 |] %14
V:2
 x6 | x4 E2 | x4 G2 | x6 | x6 | x6 | x6 | x6 | x6 | x6 | x6 | x4 E2 | x2 C2 x2 | x6 |] %14
V:3
 [E,B,]2 [E,B,]2 [G,,B,]2 | [B,,A,]3 [B,,A,] [E,G,]2 | [E,G,]2 [D,B,]2 [E,E]2 | %3
 [A,E]3 [F,B,] [E,B,]2 | [C,G,]2 [C,G,]2 [A,,C]2 | [G,,=B,]6 | [C,C]2 [C,C]2 [E,C]2 | %7
 [G,=B,]3 [G,E] [G,D]2 | [A,C]2 [A,C]2 [A,,A,]2 | [E,G,]3 [E,C] [E,B,]2 | F,2 [D,=B,]2 [C,C]2 | %11
 G,2 z _B,, [C,G,]2 | [A,,A,]2 [A,,A,]2 [B,,F,]2 | [E,G,]6 |] %14
V:4
 x6 | x6 | x6 | x6 | x6 | x6 | x6 | x6 | x6 | x6 | F,2 x4 | =B,,3 G,2 x | x6 | x6 |] %14

